**harm	**harte	**timestamp	**phrase	**leadinstrument	**kern
*M3/4	*M3/4	*	*	*	*
*A-:	*A-:	*	*	*	*A-:
1r;	N	0	.	r	1r;
=1	=1	=1	=1	=1	=1
*>A_intro	*>A_intro	*>A_intro	*>A_intro	*>A_intro	*>A_intro
4V	E-:maj	0.279	newline	r	4E- 4g 4b-
4IVb	D-:maj/3	1.045	.	r	4d- 4F 4a-
4V7b	E-:7/3	1.811	.	r	4e- 4G 4b- 4dd-
=2	=2	=2	=2	=2	=2
*>C2_intro	*>C2_intro	*>C2_intro	*>C2_intro	*>C2_intro	*>C2_intro
2.I	A-:maj	2.577	newline	voice	2A- 2cc 2ee-
=3	=3	=3	=3	=3	=3
4Im7	A-:7	4.802	.	voice	4A- 4cc 4ee- 4gg
4ii	B-:min	5.544	.	voice	4B- 4dd- 4ff
4Im7b	A-:7/3	6.285	.	voice	4a- 4C 4ee- 4gg
=4	=4	=4	=4	=4	=4
2.IV	D-:maj	7.027	.	voice	2D- 2f 2a-
=5	=5	=5	=5	=5	=5
4IV	D-:maj	9.252	.	voice	4D- 4f 4a-
4iii	C:min	9.993	.	voice	4C 4e- 4g
4ii	B-:min	10.735	.	voice	4B- 4dd- 4ff
=6	=6	=6	=6	=6	=6
2.I	A-:maj	11.476	newline	voice	2A- 2cc 2ee-
=7	=7	=7	=7	=7	=7
2.V7	E-:7	13.671	.	voice	2E- 2g 2b- 2dd-
=8	=8	=8	=8	=8	=8
2.I	A-:maj	15.865	.	voice	2A- 2cc 2ee-
=9	=9	=9	=9	=9	=9
2.I	A-:maj	18.06	.	voice	2A- 2cc 2ee-
=10	=10	=10	=10	=10	=10
*>B_verse	*>B_verse	*>B_verse	*>B_verse	*>B_verse	*>B_verse
2.I	A-:maj	20.255	newline	voice	2A- 2cc 2ee-
=11	=11	=11	=11	=11	=11
2.IV	D-:maj	22.462	.	voice	2D- 2f 2a-
=12	=12	=12	=12	=12	=12
2.I	A-:maj	24.668	.	voice	2A- 2cc 2ee-
=13	=13	=13	=13	=13	=13
2.I	A-:maj	26.875	.	voice	2A- 2cc 2ee-
=14	=14	=14	=14	=14	=14
2.I	A-:maj	29.082	newline	voice	2A- 2cc 2ee-
=15	=15	=15	=15	=15	=15
2.V7	E-:7	31.262	.	voice	2E- 2g 2b- 2dd-
=16	=16	=16	=16	=16	=16
2.I	A-:maj	33.442	.	voice	2A- 2cc 2ee-
=17	=17	=17	=17	=17	=17
2.I	A-:maj	35.622	.	voice	2A- 2cc 2ee-
=18	=18	=18	=18	=18	=18
2.I	A-:maj	37.802	newline	voice	2A- 2cc 2ee-
=19	=19	=19	=19	=19	=19
2.IV	D-:maj	40.011	.	voice	2D- 2f 2a-
=20	=20	=20	=20	=20	=20
2.I	A-:maj	42.22	.	voice	2A- 2cc 2ee-
=21	=21	=21	=21	=21	=21
2.I	A-:maj	44.43	.	voice	2A- 2cc 2ee-
=22	=22	=22	=22	=22	=22
2.I	A-:maj	46.639	newline	voice	2A- 2cc 2ee-
=23	=23	=23	=23	=23	=23
2.V7	E-:7	48.781	.	voice	2E- 2g 2b- 2dd-
=24	=24	=24	=24	=24	=24
2.I	A-:maj	50.923	.	voice	2A- 2cc 2ee-
=25	=25	=25	=25	=25	=25
2.I	A-:maj	53.065	.	voice	2A- 2cc 2ee-
=26	=26	=26	=26	=26	=26
*>C_chorus	*>C_chorus	*>C_chorus	*>C_chorus	*>C_chorus	*>C_chorus
2.I	A-:maj	55.207	newline	voice	2A- 2cc 2ee-
=27	=27	=27	=27	=27	=27
2.V7	E-:7	57.376	.	voice	2E- 2g 2b- 2dd-
=28	=28	=28	=28	=28	=28
2.I	A-:maj	59.544	.	voice	2A- 2cc 2ee-
=29	=29	=29	=29	=29	=29
2.Im7	A-:7	61.713	.	voice	2A- 2cc 2ee- 2gg
=30	=30	=30	=30	=30	=30
2.IV	D-:maj	63.882	newline	voice	2D- 2f 2a-
=31	=31	=31	=31	=31	=31
2.V7	E-:7	66.047	.	voice	2E- 2g 2b- 2dd-
=32	=32	=32	=32	=32	=32
2.I	A-:maj	68.213	.	voice	2A- 2cc 2ee-
=33	=33	=33	=33	=33	=33
2.I	A-:maj	70.378	.	voice	2A- 2cc 2ee-
=34	=34	=34	=34	=34	=34
2.I	A-:maj	72.543	newline	voice	2A- 2cc 2ee-
=35	=35	=35	=35	=35	=35
4Im7	A-:7	74.715	.	voice	4A- 4cc 4ee- 4gg
4ii	B-:min	75.439	.	voice	4B- 4dd- 4ff
4Im7b	A-:7/3	76.163	.	voice	4a- 4C 4ee- 4gg
=36	=36	=36	=36	=36	=36
2.IV	D-:maj	76.886	.	voice	2D- 2f 2a-
=37	=37	=37	=37	=37	=37
4IV	D-:maj	79.058	.	voice	4D- 4f 4a-
4iii	C:min	79.782	.	voice	4C 4e- 4g
4ii	B-:min	80.506	.	voice	4B- 4dd- 4ff
=38	=38	=38	=38	=38	=38
2.I	A-:maj	81.229	newline	voice	2A- 2cc 2ee-
=39	=39	=39	=39	=39	=39
2.V7	E-:7	83.321	.	voice	2E- 2g 2b- 2dd-
=40	=40	=40	=40	=40	=40
2.I	A-:maj	85.412	.	voice	2A- 2cc 2ee-
=41	=41	=41	=41	=41	=41
2.I	A-:maj	87.504	.	voice	2A- 2cc 2ee-
=42	=42	=42	=42	=42	=42
*>B_verse	*>B_verse	*>B_verse	*>B_verse	*>B_verse	*>B_verse
2.I	A-:maj	89.595	newline	voice	2A- 2cc 2ee-
=43	=43	=43	=43	=43	=43
2.IV	D-:maj	91.764	.	voice	2D- 2f 2a-
=44	=44	=44	=44	=44	=44
2.I	A-:maj	93.933	.	voice	2A- 2cc 2ee-
=45	=45	=45	=45	=45	=45
2.I	A-:maj	96.102	.	voice	2A- 2cc 2ee-
=46	=46	=46	=46	=46	=46
2.I	A-:maj	98.27	newline	voice	2A- 2cc 2ee-
=47	=47	=47	=47	=47	=47
2.V7	E-:7	100.406	.	voice	2E- 2g 2b- 2dd-
=48	=48	=48	=48	=48	=48
2.I	A-:maj	102.542	.	voice	2A- 2cc 2ee-
=49	=49	=49	=49	=49	=49
2.I	A-:maj	104.678	.	voice	2A- 2cc 2ee-
=50	=50	=50	=50	=50	=50
2.I	A-:maj	106.813	newline	voice	2A- 2cc 2ee-
=51	=51	=51	=51	=51	=51
2.IV	D-:maj	108.972	.	voice	2D- 2f 2a-
=52	=52	=52	=52	=52	=52
2.I	A-:maj	111.132	.	voice	2A- 2cc 2ee-
=53	=53	=53	=53	=53	=53
2.I	A-:maj	113.291	.	voice	2A- 2cc 2ee-
=54	=54	=54	=54	=54	=54
2.I	A-:maj	115.45	newline	voice	2A- 2cc 2ee-
=55	=55	=55	=55	=55	=55
2.V7	E-:7	117.54	.	voice	2E- 2g 2b- 2dd-
=56	=56	=56	=56	=56	=56
2.I	A-:maj	119.631	.	voice	2A- 2cc 2ee-
=57	=57	=57	=57	=57	=57
2.I	A-:maj	121.722	.	voice	2A- 2cc 2ee-
=58	=58	=58	=58	=58	=58
*>C_chorus	*>C_chorus	*>C_chorus	*>C_chorus	*>C_chorus	*>C_chorus
2.I	A-:maj	123.813	newline	voice	2A- 2cc 2ee-
=59	=59	=59	=59	=59	=59
2.V7	E-:7	125.996	.	voice	2E- 2g 2b- 2dd-
=60	=60	=60	=60	=60	=60
2.I	A-:maj	128.179	.	voice	2A- 2cc 2ee-
=61	=61	=61	=61	=61	=61
2.Im7	A-:7	130.362	.	voice	2A- 2cc 2ee- 2gg
=62	=62	=62	=62	=62	=62
2.IV	D-:maj	132.545	newline	voice	2D- 2f 2a-
=63	=63	=63	=63	=63	=63
2.V7	E-:7	134.628	.	voice	2E- 2g 2b- 2dd-
=64	=64	=64	=64	=64	=64
2.I	A-:maj	136.71	.	voice	2A- 2cc 2ee-
=65	=65	=65	=65	=65	=65
2.I	A-:maj	138.793	.	voice	2A- 2cc 2ee-
=66	=66	=66	=66	=66	=66
2.I	A-:maj	140.875	newline	voice	2A- 2cc 2ee-
=67	=67	=67	=67	=67	=67
4Im7	A-:7	143	.	voice	4A- 4cc 4ee- 4gg
4ii	B-:min	143.708	.	voice	4B- 4dd- 4ff
4Im7b	A-:7/3	144.417	.	voice	4a- 4C 4ee- 4gg
=68	=68	=68	=68	=68	=68
2.IV	D-:maj	145.125	.	voice	2D- 2f 2a-
=69	=69	=69	=69	=69	=69
4IV	D-:maj	147.25	.	voice	4D- 4f 4a-
4iii	C:min	147.958	.	voice	4C 4e- 4g
4ii	B-:min	148.666	.	voice	4B- 4dd- 4ff
=70	=70	=70	=70	=70	=70
2.I	A-:maj	149.374	newline	voice	2A- 2cc 2ee-
=71	=71	=71	=71	=71	=71
2.V7	E-:7	151.464	.	voice	2E- 2g 2b- 2dd-
=72	=72	=72	=72	=72	=72
2.I	A-:maj	153.554	.	voice	2A- 2cc 2ee-
=73	=73	=73	=73	=73	=73
2.I	A-:maj	155.643	.	voice	2A- 2cc 2ee-
=74	=74	=74	=74	=74	=74
*>C2_outro	*>C2_outro	*>C2_outro	*>C2_outro	*>C2_outro	*>C2_outro
2.I	A-:maj	157.733	newline	voice	2A- 2cc 2ee-
=75	=75	=75	=75	=75	=75
4Im7	A-:7	159.858	.	voice	4A- 4cc 4ee- 4gg
4ii	B-:min	160.566	.	voice	4B- 4dd- 4ff
4Im7b	A-:7/3	161.274	.	voice	4a- 4C 4ee- 4gg
=76	=76	=76	=76	=76	=76
2.IV	D-:maj	161.982	.	voice	2D- 2f 2a-
=77	=77	=77	=77	=77	=77
4IV	D-:maj	164.107	.	voice	4D- 4f 4a-
4iii	C:min	164.815	.	voice	4C 4e- 4g
4ii	B-:min	165.523	.	voice	4B- 4dd- 4ff
=78	=78	=78	=78	=78	=78
2.I	A-:maj	166.232	newline	voice	2A- 2cc 2ee-
=79	=79	=79	=79	=79	=79
2.V7	E-:7	168.353	.	voice	2E- 2g 2b- 2dd-
=80	=80	=80	=80	=80	=80
2.IV	D-:maj	170.474	.	voice	2D- 2f 2a-
=81	=81	=81	=81	=81	=81
2.I	A-:maj	172.595	.	voice	2A- 2cc 2ee-
1r;	N	177.191	.	r	1r;
1r;	N	179.853	.	r	1r;
*-	*-	*-	*-	*-	*-
!!!OTL: There Goes My Everything
!!!COC: Elvis Presley
!!!BillboardChartDate: 1971/01/16
!!!BillboardPeak: 21
!!!BillboardWeeksOnChart: 9
!!!SampleTargetRank: 27
!!!SampleActualRank: 25
!!!SampleID#: 0993
!!!RDF**harmony: **recip + pitch class of root + harmonic quality
!!!RDF**harte: Chris Harte's syntax, used by MIREX
!!!RDF**phrase: newline = linebreak in original McGill transcription
!!!RDF**timestamp: McGill audio timestamp in seconds
!!!RDF**leadinstrument: original McGill primary instrumentation annotation
!!!RDT: 2017/01/12/
!!!ENC: Nathaniel Condit-Schultz
!!!EST: Awating manual error checking and editing.
